usr/share/icons/biglinux-icons-material/scalable/places/folder_color_green_pictures.svg

<?xml version="1.0" encoding="UTF-8" standalone="no"?>
<svg
   width="24"
   height="24"
   viewBox="0 0 24 24"
   fill="none"
   version="1.1"
   id="svg17"
   sodipodi:docname="folder_color_green_pictures.svg"
   inkscape:version="1.3 (0e150ed6c4, 2023-07-21)"
   xmlns:inkscape="http://www.inkscape.org/namespaces/inkscape"
   xmlns:sodipodi="http://sodipodi.sourceforge.net/DTD/sodipodi-0.dtd"
   xmlns="http://www.w3.org/2000/svg"
   xmlns:svg="http://www.w3.org/2000/svg">
  <sodipodi:namedview
     id="namedview17"
     pagecolor="#ffffff"
     bordercolor="#000000"
     borderopacity="0.25"
     inkscape:showpageshadow="2"
     inkscape:pageopacity="0.0"
     inkscape:pagecheckerboard="0"
     inkscape:deskcolor="#d1d1d1"
     inkscape:zoom="16.895833"
     inkscape:cx="8.3156597"
     inkscape:cy="13.879162"
     inkscape:window-width="1280"
     inkscape:window-height="998"
     inkscape:window-x="0"
     inkscape:window-y="0"
     inkscape:window-maximized="0"
     inkscape:current-layer="svg17" />
  <rect
     opacity="0.8125"
     x="1"
     y="1"
     width="22"
     height="22"
     rx="6.6"
     fill="url(#paint0_linear_201_32)"
     id="rect1" />
  <rect
     opacity="0.125"
     x="3"
     y="2.25"
     width="18"
     height="18"
     rx="4.4"
     fill="url(#paint1_linear_201_32)"
     fill-opacity="0.875"
     id="rect2" />
  <rect
     x="3.25"
     y="3.25"
     width="17.5"
     height="17.5"
     rx="4.15"
     fill="#CCCCCC"
     stroke="url(#paint2_linear_201_32)"
     stroke-width="0.5"
     id="rect3" />
  <path
     opacity="0.125"
     d="M1 7.50781C1 5.84664 2.34664 4.5 4.00781 4.5H8.19048C9.265 4.5 10.3068 4.86994 11.1406 5.54762V5.54762C11.9745 6.2253 13.0162 6.59524 14.0908 6.59524H19.9922C21.6534 6.59524 23 7.94188 23 9.60305V15.5C23 19.1451 20.0451 22.1 16.4 22.1H7.6C3.95492 22.1 1 19.1451 1 15.5V7.50781Z"
     fill="url(#paint3_linear_201_32)"
     fill-opacity="0.875"
     id="path3" />
  <path
     d="M 1,8.40781 C 1,6.74664 2.34664,5.4 4.00781,5.4 h 4.18267 c 1.07452,0 2.11632,0.36994 2.95012,1.04762 v 0 c 0.8339,0.67768 1.8756,1.04762 2.9502,1.04762 h 5.9014 C 21.6534,7.49524 23,8.84188 23,10.5031 V 16.4 C 23,20.0451 20.0451,23 16.4,23 H 7.6 C 3.95492,23 1,20.0451 1,16.4 Z"
     fill="url(#paint4_linear_201_32)"
     id="path4"
     style="opacity:0.875;fill:url(#paint4_linear_201_32)" />
  <path
     d="M 22.625,10.5031 V 16.4 c 0,3.438 -2.787,6.225 -6.225,6.225 H 7.6 C 4.16203,22.625 1.375,19.838 1.375,16.4 V 8.40781 C 1.375,6.95375 2.55375,5.775 4.00781,5.775 h 4.18267 c 0.98838,0 1.94662,0.34028 2.71362,0.96363 0.9007,0.73201 2.026,1.13161 3.1867,1.13161 h 5.9014 c 1.454,0 2.6328,1.17875 2.6328,2.63286 z"
     stroke="url(#paint5_linear_201_32)"
     stroke-opacity="0.375"
     stroke-width="0.75"
     stroke-linejoin="round"
     id="path5"
     style="opacity:0.875;stroke:url(#paint5_linear_201_32)" />
  <defs
     id="defs17">
    <linearGradient
       id="paint0_linear_201_32"
       x1="23"
       y1="0.999999"
       x2="1"
       y2="12"
       gradientUnits="userSpaceOnUse">
      <stop
         stop-color="#87DE87"
         id="stop5" />
      <stop
         offset="1"
         stop-color="#217821"
         id="stop6" />
    </linearGradient>
    <linearGradient
       id="paint1_linear_201_32"
       x1="21"
       y1="4"
       x2="3"
       y2="4"
       gradientUnits="userSpaceOnUse">
      <stop
         stop-opacity="0.5"
         id="stop7" />
      <stop
         offset="0.890123"
         id="stop8" />
      <stop
         offset="1"
         stop-opacity="0"
         id="stop9" />
    </linearGradient>
    <linearGradient
       id="paint2_linear_201_32"
       x1="12"
       y1="3"
       x2="11.5"
       y2="8"
       gradientUnits="userSpaceOnUse">
      <stop
         stop-color="#DDDDDD"
         id="stop10" />
      <stop
         offset="1"
         stop-color="#CCCCCC"
         stop-opacity="0"
         id="stop11" />
    </linearGradient>
    <linearGradient
       id="paint3_linear_201_32"
       x1="23"
       y1="9"
       x2="1.01236"
       y2="9.52141"
       gradientUnits="userSpaceOnUse">
      <stop
         stop-opacity="0.5"
         id="stop12" />
      <stop
         offset="1"
         id="stop13" />
    </linearGradient>
    <linearGradient
       id="paint4_linear_201_32"
       x1="23"
       y1="5.4"
       x2="1.42949"
       y2="23.5115"
       gradientUnits="userSpaceOnUse">
      <stop
         stop-color="#AFE9AF"
         id="stop14" />
      <stop
         offset="1"
         stop-color="#2CA02C"
         id="stop15" />
    </linearGradient>
    <linearGradient
       id="paint5_linear_201_32"
       x1="15"
       y1="5.5"
       x2="5.5"
       y2="19.5"
       gradientUnits="userSpaceOnUse">
      <stop
         stop-color="#CAFFCA"
         id="stop16" />
      <stop
         offset="1"
         stop-color="#217821"
         id="stop17" />
    </linearGradient>
    <linearGradient
       id="a"
       x1="-240.47"
       x2="-240.47"
       y1="-60.605"
       y2="-29.025999"
       gradientTransform="matrix(0.96667,0,0,0.95,262.45,67.575)"
       gradientUnits="userSpaceOnUse">
      <stop
         stop-color="#4285db"
         offset="0"
         id="stop13351" />
      <stop
         stop-color="#42b9db"
         offset="1"
         id="stop13353" />
    </linearGradient>
    <linearGradient
       id="b"
       x1="10.583"
       x2="225.69"
       y1="-184.67999"
       y2="-184.67999"
       gradientTransform="matrix(0.11417,0,0,0.11417,18.557,59.5)"
       gradientUnits="userSpaceOnUse">
      <stop
         stop-color="#fafbfb"
         offset="0"
         id="stop13356" />
      <stop
         stop-color="#fafbfb"
         stop-opacity="0"
         offset="1"
         id="stop13358" />
    </linearGradient>
    <linearGradient
       id="c"
       x1="520"
       x2="410"
       y1="-620"
       y2="-620"
       gradientTransform="matrix(0.0302,0,0,0.0302,18.557,59.5)"
       gradientUnits="userSpaceOnUse">
      <stop
         offset="0"
         id="stop13361" />
      <stop
         stop-opacity="0"
         offset="1"
         id="stop13363" />
    </linearGradient>
    <linearGradient
       id="paint7_linear_207_95"
       x1="16.674999"
       y1="9"
       x2="8.2859201"
       y2="19.754999"
       gradientUnits="userSpaceOnUse"
       gradientTransform="translate(-0.46609738)">
      <stop
         stop-color="#0BB1CB"
         id="stop30" />
      <stop
         offset="1"
         stop-color="#006599"
         id="stop31" />
    </linearGradient>
    <linearGradient
       id="paint6_linear_207_44"
       x1="18.439199"
       y1="8.1073503"
       x2="9.3879299"
       y2="21.114599"
       gradientUnits="userSpaceOnUse"
       gradientTransform="matrix(0.93303702,0,0,0.93303702,0.84038255,0.56918821)">
      <stop
         stop-color="#E996B1"
         id="stop20" />
      <stop
         offset="1"
         stop-color="#BC546F"
         id="stop21" />
    </linearGradient>
    <linearGradient
       id="paint8_linear_202_66"
       x1="18.6"
       y1="10.2395"
       x2="9.5206699"
       y2="22.7798"
       gradientUnits="userSpaceOnUse">
      <stop
         stop-color="#3C9BCE"
         id="stop26" />
      <stop
         offset="1"
         stop-color="#00405F"
         id="stop27" />
    </linearGradient>
    <linearGradient
       id="paint9_linear_202_66"
       x1="11.5002"
       y1="7.6416202"
       x2="7.1997099"
       y2="11.942"
       gradientUnits="userSpaceOnUse">
      <stop
         stop-color="#3C9BCE"
         id="stop28" />
      <stop
         offset="1"
         stop-color="#00405F"
         id="stop29-0" />
    </linearGradient>
  </defs>
  <g
     id="g30"
     transform="translate(-0.699999,0.5)"
     style="opacity:0.15;fill:#1a1a1a">
    <path
       d="m 17.3281,16.0577 -1.6594,-3.8806 c -0.3021,-0.7104 -0.7527,-1.1133 -1.267,-1.1398 -0.5089,-0.0265 -1.0019,0.3287 -1.3784,1.0072 l -1.0072,1.8078 c -0.2121,0.3817 -0.5142,0.6097 -0.8429,0.6362 -0.334,0.0319 -0.668,-0.1431 -0.9384,-0.4878 L 10.1182,13.8523 C 9.74177,13.3805 9.27525,13.1525 8.79812,13.2003 8.321,13.248 7.91279,13.5767 7.64242,14.1122 L 6.72527,15.9411 C 6.39658,16.6038 6.42839,17.3724 6.81539,17.998 7.2024,18.6236 7.87567,19 8.61257,19 h 6.76463 c 0.7104,0 1.373,-0.3552 1.7653,-0.949 0.4029,-0.5937 0.4666,-1.3412 0.1856,-1.9933 z"
       fill="url(#paint8_linear_202_66)"
       id="path29"
       style="fill:#1a1a1a" />
    <path
       d="m 9.35009,11.5837 c 0.98961,0 1.79181,-0.8022 1.79181,-1.79182 C 11.1419,8.80225 10.3397,8 9.35009,8 8.36046,8 7.55821,8.80225 7.55821,9.79188 c 0,0.98962 0.80225,1.79182 1.79188,1.79182 z"
       fill="url(#paint9_linear_202_66)"
       id="path30"
       style="fill:#1a1a1a" />
  </g>
  <g
     id="g29"
     transform="translate(-1.39e-4)">
    <path
       d="m 17.3281,16.0577 -1.6594,-3.8806 c -0.3021,-0.7104 -0.7527,-1.1133 -1.267,-1.1398 -0.5089,-0.0265 -1.0019,0.3287 -1.3784,1.0072 l -1.0072,1.8078 c -0.2121,0.3817 -0.5142,0.6097 -0.8429,0.6362 -0.334,0.0319 -0.668,-0.1431 -0.9384,-0.4878 L 10.1182,13.8523 C 9.74177,13.3805 9.27525,13.1525 8.79812,13.2003 8.321,13.248 7.91279,13.5767 7.64242,14.1122 L 6.72527,15.9411 C 6.39658,16.6038 6.42839,17.3724 6.81539,17.998 7.2024,18.6236 7.87567,19 8.61257,19 h 6.76463 c 0.7104,0 1.373,-0.3552 1.7653,-0.949 0.4029,-0.5937 0.4666,-1.3412 0.1856,-1.9933 z"
       fill="url(#paint8_linear_202_66)"
       id="path8-1"
       style="fill:url(#paint8_linear_202_66)" />
    <path
       d="m 9.35009,11.5837 c 0.98961,0 1.79181,-0.8022 1.79181,-1.79182 C 11.1419,8.80225 10.3397,8 9.35009,8 8.36046,8 7.55821,8.80225 7.55821,9.79188 c 0,0.98962 0.80225,1.79182 1.79188,1.79182 z"
       fill="url(#paint9_linear_202_66)"
       id="path9"
       style="fill:url(#paint9_linear_202_66)" />
  </g>
</svg>

<svg xmlns="http://www.w3.org/2000/svg" width="24" height="24" fill="none"><rect width="22" height="22" x="1" y="1" fill="url(#a)" opacity=".813" rx="6.6"/><rect width="18" height="18" x="3" y="2.25" fill="url(#b)" fill-opacity=".875" opacity=".125" rx="4.4"/><rect width="17.5" height="17.5" x="3.25" y="3.25" fill="#CCC" stroke="url(#c)" stroke-width=".5" rx="4.15"/><path fill="url(#d)" fill-opacity=".875" d="M1 7.508A3.008 3.008 0 0 1 4.008 4.5H8.19c1.075 0 2.117.37 2.95 1.048a4.678 4.678 0 0 0 2.95 1.047h5.902A3.008 3.008 0 0 1 23 9.603V15.5a6.6 6.6 0 0 1-6.6 6.6H7.6A6.6 6.6 0 0 1 1 15.5V7.508Z" opacity=".125"/><path fill="url(#e)" d="M1 8.408A3.008 3.008 0 0 1 4.008 5.4H8.19c1.075 0 2.117.37 2.95 1.048a4.678 4.678 0 0 0 2.95 1.047h5.902A3.008 3.008 0 0 1 23 10.503V16.4a6.6 6.6 0 0 1-6.6 6.6H7.6A6.6 6.6 0 0 1 1 16.4Z" style="opacity:.875;fill:url(#e)"/><path stroke="url(#f)" stroke-linejoin="round" stroke-opacity=".375" stroke-width=".75" d="M22.625 10.503V16.4a6.225 6.225 0 0 1-6.225 6.225H7.6A6.225 6.225 0 0 1 1.375 16.4V8.408a2.633 2.633 0 0 1 2.633-2.633H8.19c.989 0 1.947.34 2.714.964a5.053 5.053 0 0 0 3.187 1.131h5.901a2.633 2.633 0 0 1 2.633 2.633z" style="opacity:.875;stroke:url(#f)"/><defs><linearGradient id="a" x1="23" x2="1" y1="1" y2="12" gradientUnits="userSpaceOnUse"><stop stop-color="#87DE87"/><stop offset="1" stop-color="#217821"/></linearGradient><linearGradient id="b" x1="21" x2="3" y1="4" y2="4" gradientUnits="userSpaceOnUse"><stop stop-opacity=".5"/><stop offset=".89"/><stop offset="1" stop-opacity="0"/></linearGradient><linearGradient id="c" x1="12" x2="11.5" y1="3" y2="8" gradientUnits="userSpaceOnUse"><stop stop-color="#DDD"/><stop offset="1" stop-color="#CCC" stop-opacity="0"/></linearGradient><linearGradient id="d" x1="23" x2="1.012" y1="9" y2="9.521" gradientUnits="userSpaceOnUse"><stop stop-opacity=".5"/><stop offset="1"/></linearGradient><linearGradient id="e" x1="23" x2="1.429" y1="5.4" y2="23.512" gradientUnits="userSpaceOnUse"><stop stop-color="#AFE9AF"/><stop offset="1" stop-color="#2CA02C"/></linearGradient><linearGradient id="f" x1="15" x2="5.5" y1="5.5" y2="19.5" gradientUnits="userSpaceOnUse"><stop stop-color="#CAFFCA"/><stop offset="1" stop-color="#217821"/></linearGradient><linearGradient id="g" x1="18.6" x2="9.521" y1="10.239" y2="22.78" gradientUnits="userSpaceOnUse"><stop stop-color="#3C9BCE"/><stop offset="1" stop-color="#00405F"/></linearGradient><linearGradient id="h" x1="11.5" x2="7.2" y1="7.642" y2="11.942" gradientUnits="userSpaceOnUse"><stop stop-color="#3C9BCE"/><stop offset="1" stop-color="#00405F"/></linearGradient></defs><g style="opacity:.15;fill:#1a1a1a"><path fill="url(#g)" d="m17.328 16.058-1.66-3.88c-.301-.711-.752-1.114-1.266-1.14-.51-.027-1.002.328-1.379 1.007l-1.007 1.807c-.212.382-.514.61-.843.637-.334.031-.668-.144-.938-.488l-.117-.149c-.376-.472-.843-.7-1.32-.652-.477.048-.885.377-1.156.912l-.917 1.83a2.106 2.106 0 0 0 .09 2.056A2.103 2.103 0 0 0 8.613 19h6.764c.71 0 1.373-.355 1.765-.949a2.075 2.075 0 0 0 .186-1.993z" style="fill:#1a1a1a" transform="translate(-.7 .5)"/><path fill="url(#h)" d="M9.35 11.584A1.792 1.792 0 1 0 9.35 8a1.792 1.792 0 0 0 0 3.584z" style="fill:#1a1a1a" transform="translate(-.7 .5)"/></g><path fill="url(#g)" d="m17.328 16.058-1.66-3.88c-.301-.711-.752-1.114-1.266-1.14-.51-.027-1.002.328-1.379 1.007l-1.007 1.807c-.212.382-.514.61-.843.637-.334.031-.668-.144-.938-.488l-.117-.149c-.376-.472-.843-.7-1.32-.652-.477.048-.885.377-1.156.912l-.917 1.83a2.106 2.106 0 0 0 .09 2.056A2.103 2.103 0 0 0 8.613 19h6.764c.71 0 1.373-.355 1.765-.949a2.075 2.075 0 0 0 .186-1.993z" style="fill:url(#g)"/><path fill="url(#h)" d="M9.35 11.584A1.792 1.792 0 1 0 9.35 8a1.792 1.792 0 0 0 0 3.584z" style="fill:url(#h)"/></svg>
